X:205
T:Polska efter C A Lindblom
R:sl\"angpolska
A:\"Osterg\"otland
B:C A Lindblom 86
Z:id:hn-sp-205
M:3/4
L:1/16
K:G
d4 d2Bd c2Ac | B2GB d2Bd g4 | d4 d2Bd c2Ac | B2GB A2F2 D4 |
d4 d2Bd c2Ac | B2GB d2Bd g4 | d4 d2Bd c2Ac | B2A2 G8 :|
|: g2f2 e2d2 e2f2 | gfga b4 B4 | g2f2 e2d2 e2f2 | gfga b8 |
g2f2 e2d2 e2f2 | gfga b4 B4 | d4 d2Bd c2Ac | B2A2 G8 :|
<end>
<start>
